packages/bezier-icons/icons/office-phone.svg

<svg width="24" height="24" viewBox="0 0 24 24" fill="none" xmlns="http://www.w3.org/2000/svg">
<path d="M10 13.6667C10 13.2985 10.2985 13 10.6667 13H11.3333C11.7015 13 12 13.2985 12 13.6667V14.3333C12 14.7015 11.7015 15 11.3333 15H10.6667C10.2985 15 10 14.7015 10 14.3333V13.6667Z" fill="#313234"/>
<path d="M10.6667 16C10.2985 16 10 16.2985 10 16.6667V17.3333C10 17.7015 10.2985 18 10.6667 18H11.3333C11.7015 18 12 17.7015 12 17.3333V16.6667C12 16.2985 11.7015 16 11.3333 16H10.6667Z" fill="#313234"/>
<path d="M13 13.6667C13 13.2985 13.2985 13 13.6667 13H14.3333C14.7015 13 15 13.2985 15 13.6667V14.3333C15 14.7015 14.7015 15 14.3333 15H13.6667C13.2985 15 13 14.7015 13 14.3333V13.6667Z" fill="#313234"/>
<path d="M13.6667 16C13.2985 16 13 16.2985 13 16.6667V17.3333C13 17.7015 13.2985 18 13.6667 18H14.3333C14.7015 18 15 17.7015 15 17.3333V16.6667C15 16.2985 14.7015 16 14.3333 16H13.6667Z" fill="#313234"/>
<path d="M16 13.6667C16 13.2985 16.2985 13 16.6667 13H17.3333C17.7015 13 18 13.2985 18 13.6667V14.3333C18 14.7015 17.7015 15 17.3333 15H16.6667C16.2985 15 16 14.7015 16 14.3333V13.6667Z" fill="#313234"/>
<path d="M16.6667 16C16.2985 16 16 16.2985 16 16.6667V17.3333C16 17.7015 16.2985 18 16.6667 18H17.3333C17.7015 18 18 17.7015 18 17.3333V16.6667C18 16.2985 17.7015 16 17.3333 16H16.6667Z" fill="#313234"/>
<path fill-rule="evenodd" clip-rule="evenodd" d="M10 7C10 6.44772 10.4477 6 11 6H17C17.5523 6 18 6.44772 18 7V9C18 9.55228 17.5523 10 17 10H11C10.4477 10 10 9.55228 10 9V7ZM11.5 8.5V7.5H16.5V8.5H11.5Z" fill="#313234"/>
<path fill-rule="evenodd" clip-rule="evenodd" d="M2 5C2 3.34315 3.34315 2 5 2H19C20.6569 2 22 3.34315 22 5V19C22 20.6569 20.6569 22 19 22H5C3.34315 22 2 20.6569 2 19V5ZM4.02032 4.79847C4.11356 4.34278 4.51675 4 5 4C5.55228 4 6 4.44772 6 5V19C6 19.5523 5.55229 20 5 20C4.44772 20 4 19.5523 4 19V5C4 4.93096 4.007 4.86356 4.02032 4.79847ZM8 19C8 19.3506 7.93985 19.6872 7.82929 20H19C19.5523 20 20 19.5523 20 19V5C20 4.44772 19.5523 4 19 4H7.82929C7.93985 4.31278 8 4.64936 8 5V19Z" fill="#313234"/>
</svg>

<svg xmlns="http://www.w3.org/2000/svg" width="24" height="24" fill="none" viewBox="0 0 24 24"><path fill="#313234" d="M10 13.667c0-.368.299-.667.667-.667h.666c.368 0 .667.299.667.667v.666a.667.667 0 0 1-.667.667h-.666a.667.667 0 0 1-.667-.667zM10.667 16a.667.667 0 0 0-.667.667v.666c0 .369.299.667.667.667h.666a.667.667 0 0 0 .667-.667v-.666a.667.667 0 0 0-.667-.667zM13 13.667c0-.368.299-.667.667-.667h.666c.368 0 .667.299.667.667v.666a.667.667 0 0 1-.667.667h-.666a.667.667 0 0 1-.667-.667zM13.667 16a.667.667 0 0 0-.667.667v.666c0 .369.299.667.667.667h.666a.667.667 0 0 0 .667-.667v-.666a.667.667 0 0 0-.667-.667zM16 13.667c0-.368.299-.667.667-.667h.666c.369 0 .667.299.667.667v.666a.667.667 0 0 1-.667.667h-.666a.667.667 0 0 1-.667-.667zM16.667 16a.667.667 0 0 0-.667.667v.666c0 .369.299.667.667.667h.666a.667.667 0 0 0 .667-.667v-.666a.667.667 0 0 0-.667-.667z"/><path fill="#313234" fill-rule="evenodd" d="M10 7a1 1 0 0 1 1-1h6a1 1 0 0 1 1 1v2a1 1 0 0 1-1 1h-6a1 1 0 0 1-1-1zm1.5 1.5v-1h5v1z" clip-rule="evenodd"/><path fill="#313234" fill-rule="evenodd" d="M2 5a3 3 0 0 1 3-3h14a3 3 0 0 1 3 3v14a3 3 0 0 1-3 3H5a3 3 0 0 1-3-3zm2.02-.202A1 1 0 0 1 6 5v14a1 1 0 1 1-2 0V5q0-.103.02-.202M8 19c0 .35-.06.687-.17 1H19a1 1 0 0 0 1-1V5a1 1 0 0 0-1-1H7.83c.11.313.17.65.17 1z" clip-rule="evenodd"/></svg>
